X:1
T:Arioso
T:Arioso
T:Dank sei Dir Herr
T:G.F. Händel 1685-1759
C:G.F. Händel 1685-1759
%%score 1 { ( 2 3 4 8 ) | ( 5 6 7 ) }
L:1/8
Q:1/4=72
M:3/4
K:A
V:1 treble nm="Stem"
V:2 treble nm="Piano"
V:3 treble 
V:4 treble 
V:8 treble 
V:5 bass 
V:6 bass 
V:7 bass 
V:1
 A6- | A6- | A6- | A2 c3 B | B4 z2 | B6- | B6- | B2 d3 c | c4 z2 | e2 c3 B | A4 z2 | A2 F3 E | E6 | %13
w: Dank|_||* sei Dir,|Herr.|Dank|_|* sei Dir,|Herr.|Du hast dein|Volk|mit Dir ge-|führt|
 A6 | B3 c d2 | c2 B3 A | A6 | z6 | z6 | z6 | z6 | z6 | z6 | z6 | z6 | z6 | z6 | z6 | z6 | z6 | %30
w: Is|_ ra- el|hin- durch das|Meer.||||||||||||||
 z6 | z6 | z6 | z6 | z6 | B2 AG FE | c4 c2 | c2 BA GF | =F2 =G2 ^G2 | A6- | A2 B3 ^A | ^A6 | %42
w: |||||Wie ei- * ne *|Heer- de|zog es * hin *|durch * *|Herr|* Dei- ne|Hand|
 B3 ^A B2 | B2 AG FE | e2 dc BA | G2 F3 E | E4 z2 | z6 | z6 | A6- | A6- | A6- | A2 c3 B | B6 | %54
w: schütz- te es|in Dei- * ner *|Gü- * * te *|gabst Du ihm|Heil|||Dank|_||* sei Dir|Herr|
 B6- | B6- | B2 d3 c | c6 | e2 c3 B | A4 z2 | A2 F3 E | E6 | A6 | B3 c d2 | cd B3 A | A6 | z6 | %67
w: Dank|_|* sei Dir|Herr|Du hast Dein|Volk|mit Dir ge-|führt|Is-|* ra- el|hin- * durch das|Meer.||
 z6 | z6 | z6 | z6 | z6 | z6 | z6 | e2 c3 B | A4 z2 | A2 F3 E | E4 z2 | B2 AG FE | e2 A2 d2 | %80
w: |||||||Du hast dein|Volk|mit Dir ge-|führt|Wie ei- * ne *|Heer- * de|
 cB B3 A | A6 |] %82
w: hin- * durch das|Meer|
V:2
 A6- | A6- | A6- | A2 c3 B | B6- | B6- | B6- | B2 d3 c | c6 | e2 c3 B | A6 | A2 F3 E | E6 | A6 | %14
 B3 c d2 | c2 B3 A | A6- | A6- | A6- | A2 c3 B | B6- | B6- | B6- | B2 d3 c | c6 | e2 c3 B | A6 | %27
 A2 F3 E | E6 | F2 E^D CB, | B2 C2 F2 | FG A3 G | G6 |!pp! F4- FE | E6 | B2 AG FE | c6 | c2 BA GF | %38
 C2 ^D2 ^E2 | F6- | F2 B3 ^A | ^A6 | B3 ^A B2 | B2 AG FE | E2 A2 GF | G2 F3 E | E6 | eG F3 E | E6 | %49
 A6- | A6- | A6- | A2 c3 B | B6 | B6- | B6- | B2 d3 c | c6 | e2 c3 B | A6 | A2 F3 E | E6 | A6 | %63
 B3 c d2 | c2 B3 A | A6- | A6- | A6- | A2 c3 B | B6- | B6- | B6- | B2 d3 c | c6 | e2 c3 B | A6 | %76
 A2 F3 E | E6 | B2 AG FE | e2 A2 d2 | cB B3 A | A6 |] %82
V:3
 C2 C2 C2 | D2 D2 D2 | E2 E2 E2 | F2 A2 A2 | G2 G2 G2 | A2 A2 A2 | E2 E2 E2 | G2 G2 G2 | A2 A2 A2 | %9
 B2 x4 | F2 F2 F2 | D2 D2 D2 | C2 C2 C2 | E2 E2 E2 | A2 A2 A2 | A2 G4 | C2 C2 C2 | D2 D2 D2 | %18
 E2 E2 E2 | F2 A2 A2 | G2 G2 G2 | A2 A2 A2 | E2 E2 E2 | G2 G2 G2 | A2 A2 A2 | G2 G2 G2 | F2 F2 F2 | %27
 E2 D2 D2 | C2 C2 C2 | B,4 F,2 | E2 x2 C2 | E2 ^D2 D2 | E2 E2 E2 | E2 ^D2 D2 | B,2 B,2 B,2 | %35
 E2 E2 E2 | ^E2 E2 E2 | F2 F2 x2 | C2 C2 C2 | C2 C2 C2 | D2 F2 F2 | F2 F2 F2 | F2 F2 F2 | %43
 E2 E2 B,2 | E2 ^DC B,C | E2 ^D4 | B,6 | E4 ^D2 | B,6 | C2 C2 C2 | D2 D2 D2 | E2 E2 E2 | F2 x4 | %53
 G2 G2 G2 | A2 A2 A2 | E2 E2 E2 | G2 G2 G2 | A2 A2 A2 | B2 x4 | F2 F2 F2 | D2 D2 D2 | C2 C2 C2 | %62
 E2 E2 E2 | A2 A2 A2 | A2 G4 | C2 C2 C2 | D2 D2 D2 | E2 E2 E2 | A2 A2 A2 | G2 G2 G2 | A2 A2 A2 | %71
 E2 E2 E2 | G2 G2 G2 | A2 A2 A2 | G2 G2 G2 | F2 F2 F2 | E2 D2 D2 | C2 C2 C2 | E4 B,2 | A2 F2 F2 | %80
 E6 | E6 |] %82
V:4
 A,2 A,2 A,2 | A,2 A,2 A,2 | A,2 A,2 A,2 | F2 F2 F2 | E2 E2 E2 | E2 E2 E2 | x6 | E2 E2 E2 | %8
 E2 E2 E2 | E2 E2 E2 | C2 C2 C2 | A,2 A,2 B,2 | C2 A,2 A,2 | x6 | F2 F2 F2 | E2 E2 D2 | x6 | %17
 A,2 A,2 A,2 | A,2 A,2 A,2 | x2 F2 F2 | E2 E2 E2 | E2 E2 E2 | B,2 B,2 B,2 | E2 E2 E2 | E2 E2 E2 | %25
 E2 E2 E2 | C2 D2 D2 | x6 | x6 | x6 | B,2 A,2 A,2 | B,2 B,2 B,2 | B,2 B,2 B,2 | x6 | x6 | %35
 B,2 B,2 B,2 | C2 C2 C2 | C2 D2 D2 | x6 | x6 | x6 | C2 C2 C2 | B,2 B,2 B,2 | B,2 B,2 x2 | x6 | x6 | %46
 x6 | x6 | x6 | A,2 A,2 A,2 | A,2 A,2 A,2 | A,2 A,2 A,2 | x2 F2 F2 | F2 E2 E2 | E2 E2 E2 | E2 z4 | %56
 E2 E2 E2 | E2 E2 E2 | E2 E2 E2 | C2 C2 C2 | A,2 A,2 B,2 | x2 A,2 A,2 | x6 | F2 F2 F2 | E2 E2 D2 | %65
 x6 | A,2 A,2 A,2 | A,2 A,2 A,2 | F2 F2 F2 | E2 E2 E2 | E2 E2 E2 | B,2 B,2 B,2 | E2 E2 E2 | %73
 E2 E2 E2 | E2 E2 E2 | C2 D2 D2 | E2 D2 D2 | C2 C2 C2 | x6 | E2 D2 D2 | x6 | C6 |] %82
V:5
!p! E,2 E,2 E,2 | E,2 E,2 E,2 | E,2 E,2 E,2 | A,2 C3 B, | B,2 B,2 B,2 | B,2 B,2 B,2 | B,2 B,2 B,2 | %7
 E,6 | A,6 |!mf! G,6 | F,6 | F,4 G,2 | A,2 E,2 E,2 |"^Cresc." A,2 A,2 A,2 | A,2 A,2 B,2 | C2 B,4 | %16
!f! A,2 A,2 A,2 | E,2 E,2 E,2 | E,2 E,2 E,2 | A,2 C3 B, | E,6 | F,6 | G,6 | E,6 | A,6 | C,6 | D,6 | %27
 A,2 A,2 G,2 | A,2 A,2 A,2 | ^D,2 E,2 D,2 | E,2 E,2 F,2 | A,G, F,2 F,2 | E,2 E,2 E,2 | %33
 B,,2 B,2 A,2 | G,2 G,2 G,2 |!p! G,2 G,2 G,2 | G,2 F,^E, ^D,C, | F,2 F,2 G,2 | ^E,2 F,2 G,2 | %39
 F,2 G,2 A,2 | G,6 | F,2 F,2 F,2 | F,2 F,2 F,2 | G,2 G,2 G,2 | A,2 A,2 A,2 | B,4 A,2 | G,6 | %47
 B,2 C2 B,A, | G,6 |!p! E,2 E,2 E,2 | E,2 E,2 E,2 | E,2 E,2 E,2 | A,2 C3 B, | B,2 B,2 B,2 | %54
 B,2 B,2 B,2 | B,2 B,2 B,2 | E,6 | A,6 | G,6 | F,6 | F,4 G,2 | A,2 E,2 E,2 |"^cresc." A,2 A,2 A,2 | %63
 A,2 A,2 B,2 | C2 B,4 |!f! A,2 A,2 A,2 | E,2 E,2 E,2 | E,2 E,2 E,2 | A,2 C3 B, | E,6 | F,6 | G,6 | %72
 E,6 | A,6 | C,6 | D,6 | A,2 A,2 G,2 | A,2 A,2 A,2 | G,2 A,2 G,2 |!ff! A,2 A,2 A,2 | A,2 G,4 | %81
 A,6 |] %82
V:6
 A,,6 | B,,6 | C,6 | D,6 | E,6 | F,6 | G,6 | E,,6 | A,,6 | G,,6 | F,,6 | F,,4 G,,2 | A,,6 | C,6 | %14
 D,6 | E,6 | E,2 E,2 E,2 | B,,6 | C,6 | D,6 | E,,6 | F,,6 | G,,6 | E,,6 | A,,6 | C,,6 | D,,6 | %27
 C,2 D,2 B,,2 | E,2 E,2 E,2 | A,,6 | G,,2 A,,2 F,,2 | B,,6 | E,,6 | B,,6 | E,6 | D,6 | C,6 | %37
 A,,2 B,,2 B,,2 | C,6 | A,,6 | B,,6 | C,2 F,2 E,2 | ^D,6 | D,6 | C,2 F,,2 G,,A,, | B,,6 | E,6 | %47
 G,2 A,2 B,,2 | E,6 | A,,6 | B,,6 | C,6 | D,6 | E,6 | F,6 | G,6 | E,,6 | A,,6 | G,,6 | F,,6 | %60
 F,,4 G,,2 | A,,6 | C,6 | D,6 | E,6 | A,,6 | B,,6 | C,6 | D,6 | E,,6 | F,,6 | G,,6 | E,,6 | A,,6 | %74
 C,,6 | D,,6 | C,2 D,2 B,,2 | A,,4 C,2 | D,6 | C,2 D,2 B,,2 | E,6 | E,6 |] %82
V:7
 x6 | x6 | x6 | x6 | x6 | x6 | x6 | x6 | x6 | x6 | x6 | x6 | x6 | x6 | x6 | x6 | A,,6 | x6 | x6 | %19
 x6 | x6 | x6 | x6 | x6 | x6 | x6 | x6 | x6 | A,,6 | x6 | x6 | x6 | x6 | x6 | x6 | x6 | x6 | x6 | %38
 x6 | x6 | x6 | x6 | x6 | x6 | x6 | x6 | x6 | x6 | x6 | x6 | x6 | x6 | x6 | x6 | x6 | x6 | x6 | %57
 x6 | x6 | x6 | x6 | x6 | x6 | x6 | x6 | E,2 E,2 E,2 | x6 | x6 | x6 | x6 | x6 | x6 | x6 | x6 | x6 | %75
 x6 | x6 | E,2 E,2 E,2 | x6 | x6 | x6 | x6 |] %82
V:8
 x6 | x6 | x6 | x6 | x6 | x6 | x6 | x6 | x6 | x6 | x6 | x6 | x6 | x6 | x6 | x6 | x6 | x6 | x6 | %19
 x6 | x6 | x6 | x6 | x6 | x6 | x6 | x6 | x6 | x6 | x6 | x6 | x6 | x6 | x6 | x6 | x6 | x6 | x6 | %38
 x6 | x6 | x6 | x6 | x6 | x6 | x6 | x6 | x6 | x6 | x6 | x6 | x6 | x6 | x6 | x6 | x6 | x6 | x6 | %57
 x6 | x6 | x6 | x6 | x6 | x6 | x6 | x6 | x6 | x6 | x6 | x6 | B,2 B,2 B,2 | B,2 B,2 B,2 | x6 | x6 | %73
 x6 | x6 | x6 | x6 | x6 | x6 | x6 | x6 | x6 |] %82

